X:3
T:Offerdals polska
R:polska O
H:efter Gustav Persa, Offerdal
A:J\"amtland
Z:hn-op-3
M:3/4
K:Dlyd
Af f<d ec|(3def (3fed (3efg|1 af f<d ec|
(3def (3fed ec:|2 af f<d ed|(3cBc d4||
K:D
|:(3ABA G<A FA|cB/A/ (3GAB A2|(3ABA G<A FA|cB/A/ (3GAB A2|
(3ABA G<A FA|cB/A/ (3GAB Ad|de (3fgf ec|d2 d4:|
